Printex-remake/img/icons/logo.svg

<svg width="168" height="36" viewBox="0 0 168 36" fill="none" xmlns="http://www.w3.org/2000/svg">
<path d="M0 2H17.2225C24.3245 2 29 5.98579 29 12.3748C29 18.7638 24.4429 22.6323 17.2225 22.6323H5.14898V35H0V2ZM23.7918 12.3162C23.7918 8.38899 21.5429 6.57194 16.9265 6.57194H5.0898V18.0604H16.9265C21.5429 18.0604 23.7918 16.1261 23.7918 12.3162Z" fill="black"/>
<path d="M31 10.4032H35.4656V12.765H35.5802C37.1832 11.0369 39.4733 10 42.1069 10C43.3092 10 44.5687 10.1728 46 10.576L44.9695 15.0115C43.4809 14.6659 42.7366 14.4931 41.5343 14.4931C37.9847 14.4931 35.7519 16.97 35.7519 21.5207V35H31V10.4032Z" fill="black"/>
<path d="M49 7.03684V2H54V7.03684H49ZM49.2747 34.9421V10.2789H53.8352V35H49.2747V34.9421Z" fill="black"/>
<path d="M58 10.7403H62.5977V13.4169H62.7126C64.6092 11.2528 67.8851 10 71.2759 10C78.2874 10 83 14.328 83 20.5923V35H78.2299V21.3895C78.2299 16.9476 75.3563 14.2141 70.8736 14.2141C68.4598 14.2141 66.5057 14.8975 65.0115 16.2642C63.5172 17.574 62.7701 19.3394 62.7701 21.5034V35H58V10.7403Z" fill="black"/>
<path d="M95.1714 14.0588V28.3529C95.1714 30.0588 95.7429 30.5882 97.8 30.5882H101.857V35H97.5714C92.4857 35 90.4286 33.0588 90.4286 28.4706V14.0588H85V9.88235H90.4286V4H95.1714V9.88235H103V14.0588H95.1714Z" fill="black"/>
<path d="M132.808 11.4673C131.15 9.8972 128.899 9 126.53 9C124.16 9 121.909 9.8972 120.251 11.4673C119.244 12.4206 118.474 13.6542 118 15H135C134.585 13.6542 133.815 12.4206 132.808 11.4673Z" fill="black"/>
<path d="M108 0V36H168V0H108ZM140.738 23.0354C138.757 27.6656 134.155 30.6752 129.029 30.6752C122.388 30.6752 116.913 25.7556 116.33 19.1576H113.476H113.243C113.184 18.7524 113.184 18.3473 113.184 18C113.184 10.9968 118.893 5.32476 125.942 5.32476C132.99 5.32476 138.699 10.9968 138.699 18C138.699 18.4051 138.641 18.8103 138.641 19.1576H138.408H120.35C120.583 21.0675 121.456 22.746 122.796 24.135C124.427 25.7556 126.641 26.6817 128.971 26.6817C131.301 26.6817 133.515 25.7556 135.146 24.135C135.728 23.5563 136.136 22.9775 136.427 22.4566L136.485 22.3408L140.738 22.6881V23.0354ZM158.505 29.865L153.146 18.2315H151.049H150.932L145.573 29.865H141.32L146.738 18.2315H144.466L138.874 6.07717H143.126L148.485 17.7106H150.583H150.699L156.058 6.07717H160.311L154.893 17.7106H157.165L162.757 29.865H158.505Z" fill="black"/>
</svg>

<svg width="168" height="36" fill="none" xmlns="http://www.w3.org/2000/svg"><path d="M0 2h17.223C24.325 2 29 5.986 29 12.375c0 6.389-4.557 10.257-11.777 10.257H5.149V35H0V2zm23.792 10.316c0-3.927-2.25-5.744-6.866-5.744H5.09V18.06h11.837c4.616 0 6.865-1.934 6.865-5.744zM31 10.403h4.466v2.362h.114C37.183 11.037 39.473 10 42.107 10c1.202 0 2.462.173 3.893.576l-1.03 4.435c-1.49-.345-2.233-.518-3.436-.518-3.55 0-5.782 2.477-5.782 7.028V35H31V10.403zm18-3.366V2h5v5.037h-5zm.275 27.905V10.28h4.56V35h-4.56v-.058zM58 10.74h4.598v2.677h.115C64.609 11.253 67.885 10 71.276 10 78.287 10 83 14.328 83 20.592V35h-4.77V21.39c0-4.442-2.874-7.176-7.356-7.176-2.414 0-4.368.684-5.862 2.05-1.495 1.31-2.242 3.075-2.242 5.24V35H58V10.74zm37.171 3.319v14.294c0 1.706.572 2.235 2.629 2.235h4.057V35h-4.286c-5.085 0-7.142-1.941-7.142-6.53V14.06H85V9.882h5.429V4h4.742v5.882H103v4.177h-7.829zm37.637-2.592C131.15 9.897 128.899 9 126.53 9c-2.37 0-4.621.897-6.279 2.467-1.007.954-1.777 2.187-2.251 3.533h17a8.248 8.248 0 00-2.192-3.533z" fill="#000"/><path d="M108 0v36h60V0h-60zm32.738 23.035c-1.981 4.63-6.583 7.64-11.709 7.64-6.641 0-12.116-4.92-12.699-11.517h-3.087c-.059-.406-.059-.81-.059-1.158 0-7.003 5.709-12.675 12.758-12.675 7.048 0 12.757 5.672 12.757 12.675 0 .405-.058.81-.058 1.158H120.35c.233 1.91 1.106 3.588 2.446 4.977a8.758 8.758 0 0012.35 0 7.562 7.562 0 001.281-1.678l.058-.116 4.253.347v.347zm17.767 6.83l-5.359-11.633h-2.214l-5.359 11.633h-4.253l5.418-11.633h-2.272l-5.592-12.155h4.252l5.359 11.634h2.214l5.359-11.634h4.253l-5.418 11.634h2.272l5.592 12.154h-4.252z" fill="#000"/></svg>
